X:1
T:Duke of Athole's [2], The
T:Duke of Athole's [2], The
T:Alexander Walker
C:Alexander Walker
L:1/8
M:4/4
K:Bmin
V:1 treble 
V:1
 B,>CD>E F2 F>E | F2 F>E D<A,A,>C | B,>CD>E F2 (F<c) | d>BF>A F<BB>F | B,>CD>E F2 F>E | %5
 F2 F>E D<A,A,>C | B,>DC>E D>FE>G | F>B^A>c d<B B || d | f>B f/e/d/c/ f<Bd>B | %10
 e>A d/c/B/A/ e<Ac>A | f>B f/e/d/c/ f<Bd>B | A>FE>C B,/B,/B, B,>b | f>B f/e/d/c/ f<Bd>B | %14
 e>A d/c/B/A/ e<Ac>A | B<FB>c (d>e)(f>^g) | a>f{f}e<c B/B/B B2 || %17

